src/images/swap.svg

<svg width="24" height="24" fill="none" xmlns="http://www.w3.org/2000/svg"><path d="M7.99 17H20v2H7.99v3L4 18l3.99-4v3zM16.01 8H4v2h12.01v3L20 9l-3.99-4v3z" fill="#11B3FE"/></svg>

<svg width="24" height="24" viewBox="0 0 24 24" fill="none" xmlns="http://www.w3.org/2000/svg">
<path d="M7.99 17H20V19H7.99V22L4 18L7.99 14V17Z" fill="#11B3FE"/>
<path d="M16.01 8H4V10H16.01V13L20 9L16.01 5V8Z" fill="#11B3FE"/>
</svg>
